X: 3267
T: SODGER LADDIE
%R: jig
B: James Kerr "Merry Melodies" v.3 p.29 #267
Z: 2016 John Chambers <jc:trillian.mit.edu>
M: 6/8
L: 1/8
K: G
g |\
BAG GAG | ABA ABd | g2G GAG | GAG B2G |\
cAc BGB | ABA ABd | g2G GAG | GAG G2 :|
|: f |\
gag gdB | Aaa a2g | def gdB | gag gdB |\
cac BgB | aAA ABd | g2G GAG | GAG G2 :|

%%sep 1 1 500
%%sep 1 1 500

